apps/earn-protocol-landing-page/public/img/landing-page/best-of-decentralised-finance_chart-1.svg

<svg width="220" height="220" viewBox="0 0 220 220" fill="none" xmlns="http://www.w3.org/2000/svg">
  <circle cx="110" cy="110" r="109.5" stroke="#3D3D3D" />
  <path
    d="M157.246 10.663C176.045 19.6043 191.922 33.6969 203.031 51.3031C214.139 68.9093 220.023 89.3064 220 110.124L154 110.05C154.009 101.723 151.656 93.5637 147.212 86.5212C142.769 79.4788 136.418 73.8417 128.898 70.2652L157.246 10.663Z"
    fill="#8D3360" />
  <path
    d="M220 110C220 133.842 212.254 157.039 197.927 176.097C183.601 195.155 163.471 209.042 140.568 215.667C117.665 222.293 93.2289 221.298 70.9405 212.832C48.6521 204.366 29.7177 188.887 16.9887 168.727C4.25978 148.567 -1.57456 124.818 0.364336 101.055C2.30323 77.2914 11.9104 54.8015 27.739 36.9717C43.5676 19.1419 64.7607 6.93761 88.1267 2.19666C111.493 -2.54429 135.767 0.434809 157.293 10.6853L128.917 70.2741C120.307 66.1739 110.597 64.9823 101.251 66.8787C91.9043 68.775 83.4271 73.6568 77.0956 80.7887C70.7642 87.9206 66.9213 96.9166 66.1457 106.422C65.3702 115.927 67.7039 125.427 72.7955 133.491C77.8871 141.555 85.4608 147.746 94.3762 151.133C103.292 154.519 113.066 154.917 122.227 152.267C131.388 149.617 139.44 144.062 145.171 136.439C150.901 128.816 154 119.537 154 110H220Z"
    fill="#FF49A4" />
  <path
    d="M220 110C220 131.756 213.549 153.023 201.462 171.113C189.375 189.202 172.195 203.301 152.095 211.627C131.995 219.952 109.878 222.131 88.5401 217.886C67.2022 213.642 47.602 203.166 32.2183 187.782L78.8873 141.113C85.0408 147.266 92.8809 151.457 101.416 153.155C109.951 154.852 118.798 153.981 126.838 150.651C134.878 147.32 141.75 141.681 146.585 134.445C151.419 127.209 154 118.702 154 110H220Z"
    fill="#FF80BF" />
</svg>

<svg xmlns="http://www.w3.org/2000/svg" width="220" height="220" fill="none" xmlns:v="https://vecta.io/nano"><circle cx="110" cy="110" r="109.5" stroke="#3d3d3d"/><path d="M157.246 10.663A110.01 110.01 0 0 1 220 110.124l-66-.074a44 44 0 0 0-6.788-23.529c-4.443-7.042-10.794-12.679-18.314-16.256l28.348-59.602z" fill="#8d3360"/><path d="M220 110c0 23.842-7.746 47.039-22.073 66.097s-34.456 32.945-57.359 39.57-47.339 5.631-69.628-2.835A110 110 0 0 1 .364 101.055 110 110 0 0 1 88.127 2.197a110 110 0 0 1 69.166 8.489l-28.376 59.589a44 44 0 0 0-51.821 10.515 44 44 0 0 0-4.3 52.702c5.092 8.064 12.665 14.255 21.581 17.642s18.69 3.784 27.851 1.134 17.213-8.205 22.944-15.828S154 119.537 154 110h66z" fill="#ff49a4"/><path d="M220 110a110 110 0 0 1-18.538 61.113c-12.087 18.089-29.267 32.188-49.367 40.514a110 110 0 0 1-63.555 6.259c-21.338-4.244-40.938-14.72-56.322-30.104l46.669-46.669c6.154 6.153 13.994 10.344 22.529 12.042a44.01 44.01 0 0 0 25.422-2.504c8.04-3.331 14.912-8.97 19.747-16.206S154 118.702 154 110h66z" fill="#ff80bf"/></svg>
